; HEADER_BLOCK_START
; generated by OrcaSlicer 2.3.1 on 2025-12-21 at 18:01:12
; total layer number: 245
; filament_density: 1.24
; filament_diameter: 1.75
; max_z_height: 49.04
; HEADER_BLOCK_END

; THUMBNAIL_BLOCK_START

;
; THUMBNAIL_BLOCK_END

; external perimeters extrusion width = 0.42mm
; perimeters extrusion width = 0.45mm
; infill extrusion width = 0.45mm
; solid infill extrusion width = 0.42mm
; top infill extrusion width = 0.42mm
; first layer extrusion width = 0.50mm

; EXECUTABLE_BLOCK_START
M201 X2000 Y2000 Z800 E2000
M203 X300 Y300 Z8 E100
M204 P2000 R2000 T20000 ; sets acceleration (P, T) and retract acceleration (R), mm/sec^2
M205 X10.00 Y10.00 Z2.00 E5.00 ; sets the jerk limits, mm/sec
;TYPE:Custom
G21 ; metric values
G90 ; use absolute coordinates
M83 ; extruder relative mode
M104 S220 ; set extruder temp
M140 S55 ; set bed temp
G28; move X/Y/Z to min endstops
M420 S1
M300 S1318 P266
G1 Z5 F5000 ; lift nozzle
G1 X0 Y0  F3000
G1 Z0.3; lift nozzle a bit
G92 E0 ; zero after lift
G1 X10 Y5 F1800 ; move to purge line start position
M190 S55 ; wait for bed temp
M109 S220 ; wait for extruder temp
G1 X60 Y5 E20 F500 ; Extrude 20mm of filament in a 5cm line. 
G92 E0 ; zero the extruded length again 
G1 E-4.5 F4000 ; Retract a little 
G92 E0 ; zero the extruded length again
G1 X120 F4000 ; Quickly wipe away from the filament line
M117 Printing... ; Display status message
G90
G21
M83 ; use relative distances for extrusion
; Filament gcode
M106 S0
;LAYER_CHANGE
;Z:0.24
;HEIGHT:0.24
G92 E0 ; zero the extruded length again
; BEFORE_LAYER_CHANGE 0 @ 0.24mm
G1 E-.8 F6000
; AFTER_LAYER_CHANGE 0 @ 0.24mm
;_SET_FAN_SPEED_CHANGING_LAYER
M204 P500
; printing object house.stl id:3152 copy 0
M204 T500
G1 X72.535 Y81.644 F18000
G1 Z.24
G1 Z.24
G1 E.8 F6000
;TYPE:Brim
;WIDTH:0.5
G1 F3000
G1 X73.044 Y81.268 E.02778
G1 X73.762 Y80.904 E.03531
G1 X74.47 Y80.678 E.03258
G1 X75.101 Y80.582 E.02801
G1 X75.423 Y80.57 E.01412
G1 X121.519 Y80.57 E2.02158
G1 X122.161 Y80.618 E.02825
G1 X122.782 Y80.759 E.02792
G1 X123.337 Y80.972 E.02607
G1 X123.902 Y81.27 E.02802
G1 X124.413 Y81.647 E.02788
G1 X124.863 Y82.096 E.02788
G1 X125.24 Y82.606 E.02778
G1 X125.603 Y83.324 E.03531
G1 X125.83 Y84.032 E.03258
G1 X125.926 Y84.663 E.02801
G1 X125.938 Y84.985 E.01412
G1 X125.938 Y99.37 E.63087
G1 X125.986 Y99.509 E.00648
G1 X126.162 Y99.594 E.00855
G1 X144.573 Y99.594 E.80743
G1 X145.215 Y99.642 E.02825
G1 X145.837 Y99.784 E.02797
G1 X146.283 Y99.949 E.02087
G1 X146.957 Y100.295 E.03321
G1 X147.468 Y100.671 E.02782
G1 X147.918 Y101.121 E.02788
G1 X148.294 Y101.63 E.02778
G1 X148.658 Y102.348 E.03531
G1 X148.884 Y103.056 E.03258
G1 X148.98 Y103.687 E.02801
G1 X148.992 Y104.009 E.01412
G1 X148.992 Y123.938 E.87403
G1 X148.944 Y124.581 E.02825
G1 X148.802 Y125.203 E.02797
G1 X148.637 Y125.649 E.02087
G1 X148.291 Y126.322 E.03321
G1 X147.915 Y126.833 E.02782
G1 X147.465 Y127.283 E.02788
G1 X146.953 Y127.662 E.02796
G1 X146.51 Y127.907 E.0222
G1 X145.917 Y128.148 E.02807
G1 X145.343 Y128.291 E.02592
G1 X122.302 Y132.375 E1.02627
G1 X121.926 Y132.424 E.01661
G1 X121.522 Y132.443 E.01775
G1 X102.577 Y132.443 E.83086
G1 X102.437 Y132.492 E.00648
G1 X102.358 Y132.617 E.00648
G1 X102.362 Y132.734 E.00514
G1 X102.431 Y132.955 E.01018
G1 X102.526 Y133.584 E.0279
G1 X102.539 Y135.866 E.10006
G1 X102.491 Y136.508 E.02822
G1 X102.349 Y137.128 E.02792
G1 X102.137 Y137.683 E.02607
G1 X101.838 Y138.248 E.02802
G1 X101.461 Y138.76 E.02788
G1 X101.012 Y139.21 E.02788
G1 X100.503 Y139.587 E.02778
G1 X99.785 Y139.95 E.03531
G1 X99.077 Y140.177 E.03258
G1 X98.446 Y140.272 E.02801
G1 X98.124 Y140.284 E.01412
G1 X96.145 Y140.284 E.08677
G1 X95.503 Y140.236 E.02825
G1 X94.882 Y140.095 E.02792
G1 X94.327 Y139.882 E.02607
G1 X93.762 Y139.584 E.02802
G1 X93.251 Y139.207 E.02788
G1 X92.801 Y138.758 E.02788
G1 X92.451 Y138.285 E.02579
G1 X92.329 Y138.202 E.00648
G1 X92.182 Y138.212 E.00648
G1 X92.09 Y138.285 E.00513
G1 X91.74 Y138.76 E.02586
G1 X91.291 Y139.21 E.02788
G1 X90.783 Y139.586 E.02773
G1 X89.964 Y139.989 E.04005
G1 X89.357 Y140.176 E.02784
G1 X88.728 Y140.272 E.02791
G1 X87.147 Y140.284 E.06933
G1 X86.506 Y140.236 E.02821
G1 X85.884 Y140.095 E.02797
G1 X85.438 Y139.929 E.02087
G1 X84.764 Y139.583 E.03321
G1 X84.253 Y139.207 E.02782
G1 X83.803 Y138.758 E.02788
G1 X83.427 Y138.248 E.02778
G1 X83.2 Y137.799 E.02208
G1 X83.093 Y137.697 E.00648
G1 X82.946 Y137.683 E.00648
G1 X82.801 Y137.796 E.00807
G1 X82.562 Y138.248 E.02244
G1 X82.185 Y138.76 E.02788
G1 X81.736 Y139.21 E.02788
G1 X81.228 Y139.586 E.02773
G1 X80.408 Y139.989 E.04005
G1 X79.802 Y140.176 E.02784
G1 X79.173 Y140.272 E.02789
G1 X75.601 Y140.284 E.15665
G1 X74.959 Y140.236 E.02823
G1 X74.339 Y140.095 E.02792
G1 X73.784 Y139.882 E.02607
G1 X73.219 Y139.584 E.02802
G1 X72.707 Y139.207 E.02788
G1 X72.257 Y138.758 E.02788
G1 X71.88 Y138.248 E.02778
G1 X71.517 Y137.53 E.03531
G1 X71.29 Y136.823 E.03258
G1 X71.195 Y136.195 E.02785
G1 X71.182 Y133.913 E.10006
G1 X71.23 Y133.272 E.02822
G1 X71.372 Y132.65 E.02797
G1 X71.515 Y132.264 E.01805
G1 X71.519 Y132.118 E.00641
G1 X71.29 Y131.403 E.03291
G1 X71.195 Y130.775 E.02787
G1 X71.182 Y129.23 E.06774
G1 X71.116 Y128.983 E.01124
G1 X71.02 Y128.35 E.02806
G1 X71.008 Y128.028 E.01412
G1 X71.008 Y84.989 E1.88754
G1 X71.056 Y84.347 E.02825
G1 X71.198 Y83.725 E.02797
G1 X71.363 Y83.279 E.02087
G1 X71.709 Y82.605 E.03321
G1 X72.085 Y82.094 E.02782
G1 X72.506 Y81.673 E.02612
G1 X72.821 Y81.992 F18000
G1 F3000
G1 X73.271 Y81.657 E.02459
G1 X73.923 Y81.325 E.03211
G1 X74.583 Y81.114 E.03038
G1 X75.136 Y81.03 E.02452
G1 X75.429 Y81.018 E.01286
G1 X121.507 Y81.019 E2.02081
G1 X122.104 Y81.065 E.02626
G1 X122.66 Y81.193 E.02502
G1 X123.158 Y81.385 E.02342
G1 X123.654 Y81.646 E.02457
G1 X124.112 Y81.982 E.02493
G1 X124.529 Y82.398 E.02581
G1 X124.862 Y82.852 E.0247
G1 X125.182 Y83.485 E.03112
G1 X125.394 Y84.145 E.03038
G1 X125.477 Y84.698 E.02452
G1 X125.489 Y84.996 E.01308
G1 X125.489 Y99.358 E.62989
G1 X125.558 Y99.644 E.01287
G1 X125.661 Y99.814 E.00874
G1 X125.803 Y99.918 E.0077
G1 X125.953 Y99.991 E.00734
G1 X126.177 Y100.042 E.01008
G1 X144.551 Y100.042 E.80581
G1 X145.138 Y100.086 E.02582
G1 X145.7 Y100.212 E.02526
G1 X146.095 Y100.357 E.01843
G1 X146.729 Y100.684 E.03127
G1 X147.182 Y101.02 E.02473
G1 X147.57 Y101.407 E.02405
G1 X147.916 Y101.876 E.02558
G1 X148.237 Y102.509 E.03112
G1 X148.443 Y103.148 E.02944
G1 X148.532 Y103.722 E.02546
G1 X148.543 Y104.015 E.01286
G1 X148.544 Y123.917 E.87282
G1 X148.5 Y124.504 E.02582
G1 X148.368 Y125.083 E.02603
G1 X148.222 Y125.475 E.01837
G1 X147.913 Y126.076 E.02963
G1 X147.579 Y126.532 E.02479
G1 X147.164 Y126.948 E.02581
G1 X146.702 Y127.288 E.02513
G1 X146.309 Y127.504 E.01969
G1 X145.786 Y127.717 E.02474
G1 X145.245 Y127.853 E.02446
G1 X122.236 Y131.931 E1.02483
G1 X121.892 Y131.977 E.01522
G1 X121.508 Y131.995 E.01685
G1 X102.588 Y131.995 E.82977
G1 X102.418 Y132.024 E.00755
G1 X102.303 Y132.064 E.00537
G1 X102.129 Y132.169 E.00892
G1 X102.054 Y132.259 E.00515
G1 X101.99 Y132.36 E.00521
G1 X101.911 Y132.653 E.01332
G1 X102.078 Y133.629 E.04344
G1 X102.09 Y135.856 E.09765
G1 X102.044 Y136.451 E.02616
G1 X101.921 Y136.988 E.02419
G1 X101.731 Y137.49 E.02355
G1 X101.452 Y138.017 E.02616
G1 X101.113 Y138.474 E.02493
G1 X100.71 Y138.875 E.02493
G1 X100.257 Y139.209 E.0247
G1 X99.623 Y139.529 E.03112
G1 X98.964 Y139.74 E.03038
G1 X98.411 Y139.824 E.02452
G1 X98.118 Y139.836 E.01286
G1 X96.167 Y139.836 E.08555
G1 X95.58 Y139.792 E.02582
G1 X95.022 Y139.667 E.02507
G1 X94.506 Y139.469 E.02425
G1 X93.993 Y139.197 E.02545
G1 X93.537 Y138.859 E.02493
G1 X93.149 Y138.471 E.02405
G1 X92.818 Y138.027 E.02426
G1 X92.694 Y137.908 E.00755
G1 X92.593 Y137.839 E.00536
G1 X92.405 Y137.762 E.00892
G1 X92.288 Y137.755 E.00515
G1 X92.17 Y137.764 E.00521
G1 X91.892 Y137.872 E.01309
G1 X91.722 Y138.029 E.01015
G1 X91.392 Y138.474 E.02427
G1 X91.005 Y138.862 E.02405
G1 X90.558 Y139.194 E.02439
G1 X89.787 Y139.574 E.0377
G1 X89.247 Y139.74 E.02478
G1 X88.683 Y139.824 E.02502
G1 X87.168 Y139.836 E.06645
G1 X86.563 Y139.789 E.0266
G1 X86.021 Y139.666 E.02438
G1 X85.626 Y139.521 E.01843
G1 X84.992 Y139.194 E.03127
G1 X84.539 Y138.859 E.02473
G1 X84.151 Y138.471 E.02405
G1 X83.817 Y138.021 E.02459
G1 X83.605 Y137.607 E.02041
G1 X83.503 Y137.469 E.00755
G1 X83.415 Y137.384 E.00537
G1 X83.246 Y137.278 E.00872
G1 X82.999 Y137.238 E.01098
G1 X82.804 Y137.26 E.00859
G1 X82.661 Y137.336 E.0071
G1 X82.537 Y137.433 E.00694
G1 X82.398 Y137.599 E.00948
G1 X82.175 Y138.017 E.02078
G1 X81.85 Y138.459 E.02405
G1 X81.434 Y138.875 E.02581
G1 X80.982 Y139.207 E.02457
G1 X80.252 Y139.566 E.03572
G1 X79.692 Y139.74 E.02571
G1 X79.129 Y139.823 E.02496
G1 X75.622 Y139.836 E.15377
G1 X75.036 Y139.792 E.02578
G1 X74.479 Y139.667 E.02507
G1 X73.962 Y139.469 E.02425
G1 X73.467 Y139.208 E.02457
G1 X73.008 Y138.872 E.02493
G1 X72.605 Y138.471 E.02493
G1 X72.27 Y138.021 E.02459
G1 X71.938 Y137.369 E.03211
G1 X71.732 Y136.73 E.02944
G1 X71.645 Y136.169 E.02489
G1 X71.631 Y133.934 E.09803
G1 X71.674 Y133.349 E.02575
G1 X71.801 Y132.787 E.02526
G1 X71.932 Y132.43 E.01665
G1 X71.967 Y132.139 E.01286
G1 X71.942 Y131.971 E.00747
G1 X71.727 Y131.29 E.03131
G1 X71.645 Y130.749 E.02401
G1 X71.631 Y129.24 E.06615
G1 X71.554 Y128.883 E.01602
G1 X71.468 Y128.315 E.02518
G1 X71.456 Y128.017 E.01308
G1 X71.456 Y85.011 E1.88611
G1 X71.5 Y84.424 E.02582
G1 X71.632 Y83.845 E.02603
G1 X71.778 Y83.452 E.01837
G1 X72.087 Y82.852 E.02963
G1 X72.421 Y82.395 E.02479
G1 X72.793 Y82.02 E.02318
G1 X73.109 Y82.339 F18000
G1 F3000
G1 X73.499 Y82.047 E.02139
G1 X74.085 Y81.746 E.02888
G1 X74.696 Y81.55 E.02815
G1 X75.171 Y81.479 E.02107
G1 X75.435 Y81.467 E.01158
G1 X121.484 Y81.467 E2.01954
G1 X122.026 Y81.509 E.02381
G1 X122.537 Y81.626 E.02301
G1 X122.979 Y81.797 E.02079
G1 X123.406 Y82.023 E.02118
G1 X123.811 Y82.318 E.02197
G1 X124.18 Y82.684 E.0228
G1 X124.484 Y83.098 E.02249
G1 X124.769 Y83.666 E.0279
G1 X124.957 Y84.258 E.02724
G1 X125.029 Y84.733 E.02107
G1 X125.041 Y85.008 E.01205
G1 X125.041 Y99.345 E.62878
G1 X125.121 Y99.741 E.01774
G1 X125.18 Y99.884 E.00677
G1 X125.27 Y100.035 E.00771
G1 X125.406 Y100.183 E.00881
G1 X125.528 Y100.273 E.00668
G1 X125.749 Y100.39 E.01096
G1 X126.073 Y100.478 E.01469
G1 X126.185 Y100.491 E.00496
G1 X144.53 Y100.491 E.80453
G1 X145.062 Y100.53 E.02342
G1 X145.564 Y100.642 E.02256
G1 X145.906 Y100.766 E.01595
G1 X146.5 Y101.072 E.02929
G1 X146.88 Y101.354 E.02077
G1 X147.222 Y101.694 E.02111
G1 X147.538 Y102.122 E.02337
G1 X147.816 Y102.671 E.02697
G1 X148.002 Y103.242 E.02631
G1 X148.083 Y103.758 E.02291
G1 X148.095 Y104.021 E.01156
G1 X148.095 Y123.895 E.87159
G1 X148.053 Y124.447 E.02427
G1 X147.935 Y124.962 E.02319
G1 X147.807 Y125.3 E.01584
G1 X147.535 Y125.83 E.02611
G1 X147.244 Y126.231 E.02175
G1 X146.877 Y126.6 E.02281
G1 X146.452 Y126.914 E.02316
G1 X146.108 Y127.102 E.0172
G1 X145.655 Y127.286 E.02146
G1 X145.147 Y127.415 E.02299
G1 X122.17 Y131.487 E1.02337
G1 X121.857 Y131.529 E.01384
G1 X121.494 Y131.546 E.01594
G1 X102.599 Y131.546 E.82867
G1 X102.263 Y131.603 E.01494
G1 X102.062 Y131.685 E.00954
G1 X101.907 Y131.779 E.00796
G1 X101.78 Y131.888 E.00735
G1 X101.615 Y132.115 E.01229
G1 X101.555 Y132.252 E.00656
G1 X101.482 Y132.521 E.01224
G1 X101.471 Y132.743 E.00973
G1 X101.63 Y133.68 E.04166
G1 X101.641 Y135.834 E.09449
G1 X101.597 Y136.393 E.02457
G1 X101.493 Y136.849 E.02053
G1 X101.324 Y137.297 E.021
G1 X101.065 Y137.786 E.02426
G1 X100.766 Y138.187 E.02196
G1 X100.41 Y138.54 E.02198
G1 X100.011 Y138.83 E.02163
G1 X99.462 Y139.108 E.02697
G1 X98.85 Y139.304 E.02817
G1 X98.375 Y139.376 E.02107
G1 X98.111 Y139.387 E.01158
G1 X96.189 Y139.387 E.08432
G1 X95.656 Y139.348 E.02342
G1 X95.143 Y139.233 E.02305
G1 X94.684 Y139.056 E.02156
G1 X94.225 Y138.811 E.02284
G1 X93.838 Y138.524 E.02114
G1 X93.496 Y138.184 E.02116
G1 X93.122 Y137.697 E.02692
G1 X93.012 Y137.591 E.00671
G1 X92.853 Y137.474 E.00864
G1 X92.588 Y137.352 E.01279
G1 X92.313 Y137.308 E.01223
G1 X92.145 Y137.316 E.00734
G1 X91.997 Y137.35 E.00667
G1 X91.74 Y137.45 E.01209
G1 X91.579 Y137.551 E.00832
G1 X91.355 Y137.771 E.01379
G1 X91.044 Y138.187 E.02279
G1 X90.703 Y138.528 E.02116
G1 X90.312 Y138.815 E.02125
G1 X89.611 Y139.159 E.03426
G1 X89.138 Y139.302 E.02168
G1 X88.638 Y139.375 E.02214
G1 X87.189 Y139.387 E.06358
G1 X86.62 Y139.343 E.025
G1 X86.157 Y139.237 E.02085
G1 X85.815 Y139.112 E.01597
G1 X85.221 Y138.806 E.02929
G1 X84.826 Y138.511 E.02163
G1 X84.485 Y138.169 E.02116
G1 X84.195 Y137.776 E.02146
G1 X83.96 Y137.332 E.022
G1 X83.732 Y137.067 E.01534
G1 X83.493 Y136.904 E.01269
G1 X83.304 Y136.833 E.00884
G1 X83.085 Y136.798 E.00976
G1 X82.763 Y136.814 E.01412
G1 X82.584 Y136.87 E.00824
G1 X82.381 Y136.986 E.01027
G1 X82.186 Y137.154 E.01128
G1 X82.062 Y137.301 E.00844
G1 X81.789 Y137.786 E.02438
G1 X81.502 Y138.173 E.02114
G1 X81.148 Y138.527 E.02193
G1 X80.758 Y138.815 E.02126
G1 X80.095 Y139.144 E.03248
G1 X79.582 Y139.303 E.02356
G1 X79.085 Y139.375 E.02201
G1 X75.643 Y139.387 E.15094
G1 X75.112 Y139.348 E.02335
G1 X74.618 Y139.239 E.02221
G1 X74.155 Y139.063 E.02171
G1 X73.714 Y138.831 E.02186
G1 X73.308 Y138.536 E.022
G1 X72.952 Y138.184 E.02198
G1 X72.659 Y137.793 E.02139
G1 X72.359 Y137.207 E.02891
G1 X72.173 Y136.637 E.0263
G1 X72.095 Y136.143 E.0219
G1 X72.08 Y133.955 E.09598
G1 X72.119 Y133.425 E.02331
G1 X72.23 Y132.922 E.02257
G1 X72.379 Y132.47 E.02088
G1 X72.409 Y132.068 E.01767
G1 X72.367 Y131.826 E.01077
G1 X72.168 Y131.198 E.02891
G1 X72.094 Y130.722 E.02112
G1 X72.08 Y129.247 E.06471
G1 X71.917 Y128.282 E.0429
G1 X71.905 Y128.006 E.01214
G1 X71.905 Y85.032 E1.88464
G1 X71.947 Y84.48 E.02427
G1 X72.065 Y83.965 E.02319
G1 X72.193 Y83.627 E.01584
G1 X72.465 Y83.097 E.02611
G1 X72.757 Y82.696 E.02178
G1 X73.081 Y82.367 E.02023
G1 X73.397 Y82.685 F18000
G1 F3000
G1 X73.728 Y82.435 E.01819
G1 X74.247 Y82.167 E.02561
G1 X74.81 Y81.987 E.02591
G1 X75.208 Y81.927 E.01766
G1 X75.442 Y81.916 E.01029
G1 X121.462 Y81.916 E2.01826
G1 X121.948 Y81.952 E.02137
G1 X122.414 Y82.06 E.02098
G1 X122.8 Y82.21 E.01815
G1 X123.16 Y82.4 E.01785
G1 X123.511 Y82.654 E.01902
G1 X123.832 Y82.97 E.01974
G1 X124.105 Y83.343 E.02025
G1 X124.356 Y83.846 E.02466
G1 X124.521 Y84.371 E.02412
G1 X124.581 Y84.769 E.01768
G1 X124.592 Y85.02 E.01101
G1 X124.592 Y99.333 E.62771
G1 X124.68 Y99.822 E.02177
G1 X124.762 Y100.047 E.01051
G1 X124.946 Y100.344 E.01533
G1 X125.147 Y100.549 E.0126
G1 X125.324 Y100.672 E.00945
G1 X125.644 Y100.826 E.01555
G1 X125.946 Y100.908 E.01373
G1 X126.193 Y100.939 E.01095
G1 X144.508 Y100.939 E.80322
G1 X144.987 Y100.974 E.02105
G1 X145.43 Y101.071 E.01989
G1 X145.718 Y101.175 E.01341
G1 X146.27 Y101.461 E.02729
G1 X146.594 Y101.702 E.01771
G1 X146.874 Y101.98 E.0173
G1 X147.16 Y102.368 E.02114
G1 X147.395 Y102.834 E.02287
G1 X147.561 Y103.337 E.02322
G1 X147.635 Y103.795 E.02037
G1 X147.646 Y104.028 E.01023
G1 X147.647 Y123.873 E.87031
G1 X147.609 Y124.369 E.02183
G1 X147.501 Y124.841 E.02122
G1 X147.393 Y125.125 E.01334
G1 X147.157 Y125.585 E.02266
G1 X146.907 Y125.931 E.01872
G1 X146.575 Y126.266 E.02069
G1 X146.203 Y126.539 E.02025
G1 X145.908 Y126.699 E.01468
G1 X145.524 Y126.856 E.01823
G1 X145.048 Y126.977 E.02153
G1 X121.828 Y131.08 E1.0341
G1 X121.48 Y131.098 E.01527
G1 X102.609 Y131.098 E.82761
G1 X102.201 Y131.159 E.01811
G1 X101.821 Y131.307 E.0179
G1 X101.683 Y131.39 E.00705
G1 X101.492 Y131.545 E.01079
G1 X101.414 Y131.63 E.00504
G1 X101.201 Y131.944 E.01666
G1 X101.12 Y132.143 E.00941
G1 X101.051 Y132.397 E.01156
G1 X101.031 Y132.829 E.01898
G1 X101.181 Y133.729 E.04001
G1 X101.193 Y135.812 E.09133
G1 X101.15 Y136.334 E.02299
G1 X101.059 Y136.728 E.01772
G1 X100.918 Y137.104 E.01763
G1 X100.679 Y137.553 E.02231
G1 X100.419 Y137.899 E.01896
G1 X100.11 Y138.203 E.01902
G1 X99.766 Y138.451 E.01858
G1 X99.301 Y138.687 E.02288
G1 X98.737 Y138.867 E.02596
G1 X98.339 Y138.928 E.01766
G1 X98.105 Y138.939 E.01029
G1 X96.21 Y138.939 E.08308
G1 X95.732 Y138.904 E.02102
G1 X95.265 Y138.799 E.02101
G1 X94.864 Y138.644 E.01883
