; HEADER_BLOCK_START
; generated by OrcaSlicer 2.3.1 on 2025-12-21 at 18:00:45
; total layer number: 353
; filament_density: 1.24
; filament_diameter: 1.75
; max_z_height: 70.64
; HEADER_BLOCK_END

; THUMBNAIL_BLOCK_START

;
; THUMBNAIL_BLOCK_END

; external perimeters extrusion width = 0.42mm
; perimeters extrusion width = 0.45mm
; infill extrusion width = 0.45mm
; solid infill extrusion width = 0.42mm
; top infill extrusion width = 0.42mm
; first layer extrusion width = 0.50mm

; EXECUTABLE_BLOCK_START
M201 X2000 Y2000 Z800 E2000
M203 X300 Y300 Z8 E100
M204 P2000 R2000 T20000 ; sets acceleration (P, T) and retract acceleration (R), mm/sec^2
M205 X10.00 Y10.00 Z2.00 E5.00 ; sets the jerk limits, mm/sec
;TYPE:Custom
G21 ; metric values
G90 ; use absolute coordinates
M83 ; extruder relative mode
M104 S220 ; set extruder temp
M140 S55 ; set bed temp
G28; move X/Y/Z to min endstops
M420 S1
M300 S1318 P266
G1 Z5 F5000 ; lift nozzle
G1 X0 Y0  F3000
G1 Z0.3; lift nozzle a bit
G92 E0 ; zero after lift
G1 X10 Y5 F1800 ; move to purge line start position
M190 S55 ; wait for bed temp
M109 S220 ; wait for extruder temp
G1 X60 Y5 E20 F500 ; Extrude 20mm of filament in a 5cm line. 
G92 E0 ; zero the extruded length again 
G1 E-4.5 F4000 ; Retract a little 
G92 E0 ; zero the extruded length again
G1 X120 F4000 ; Quickly wipe away from the filament line
M117 Printing... ; Display status message
G90
G21
M83 ; use relative distances for extrusion
; Filament gcode
M106 S0
;LAYER_CHANGE
;Z:0.24
;HEIGHT:0.24
G92 E0 ; zero the extruded length again
; BEFORE_LAYER_CHANGE 0 @ 0.24mm
G1 E-.8 F6000
; AFTER_LAYER_CHANGE 0 @ 0.24mm
;_SET_FAN_SPEED_CHANGING_LAYER
M204 P500
; printing object roof.stl id:3152 copy 0
M204 T500
G1 X96.905 Y83.565 F18000
G1 Z.24
G1 Z.24
G1 E.8 F6000
;TYPE:Brim
;WIDTH:0.5
G1 F3000
G1 X97.354 Y83.115 E.02788
G1 X97.863 Y82.738 E.02778
G1 X98.582 Y82.375 E.03531
G1 X99.289 Y82.148 E.03258
G1 X99.921 Y82.053 E.02801
G1 X116.956 Y82.04 E.74712
G1 X117.599 Y82.089 E.02825
G1 X118.22 Y82.23 E.02797
G1 X118.667 Y82.396 E.02087
G1 X119.34 Y82.742 E.03321
G1 X119.851 Y83.118 E.02782
G1 X120.301 Y83.567 E.02788
G1 X120.678 Y84.076 E.02778
G1 X121.041 Y84.795 E.03531
G1 X121.268 Y85.502 E.03258
G1 X121.363 Y86.13 E.02785
G1 X121.375 Y88.338 E.09683
G1 X121.327 Y88.98 E.02822
G1 X121.186 Y89.6 E.02792
G1 X120.973 Y90.155 E.02607
G1 X120.675 Y90.72 E.02802
G1 X120.298 Y91.232 E.02788
G1 X119.936 Y91.595 E.02247
G1 X119.87 Y91.753 E.00752
G1 X119.87 Y128.263 E1.6012
G1 X119.936 Y128.422 E.00753
G1 X120.362 Y128.847 E.0264
G1 X120.739 Y129.357 E.02778
G1 X121.102 Y130.075 E.03531
G1 X121.329 Y130.782 E.03258
G1 X121.424 Y131.41 E.02785
G1 X121.437 Y133.541 E.09345
G1 X121.389 Y134.183 E.02822
G1 X121.247 Y134.803 E.02792
G1 X121.035 Y135.358 E.02607
G1 X120.736 Y135.923 E.02802
G1 X120.359 Y136.435 E.02788
G1 X119.91 Y136.885 E.02788
G1 X119.401 Y137.262 E.02778
G1 X118.682 Y137.625 E.03531
G1 X117.975 Y137.852 E.03258
G1 X117.343 Y137.947 E.02801
G1 X100.248 Y137.96 E.74974
G1 X99.606 Y137.911 E.02825
G1 X98.985 Y137.77 E.02792
G1 X98.43 Y137.557 E.02607
G1 X97.865 Y137.259 E.02802
G1 X97.353 Y136.882 E.02788
G1 X96.903 Y136.433 E.02788
G1 X96.527 Y135.924 E.02778
G1 X96.164 Y135.208 E.03516
G1 X95.937 Y134.501 E.03257
G1 X95.842 Y133.872 E.02789
G1 X95.828 Y132.984 E.03895
G1 X95.807 Y132.703 E.01238
G1 X95.807 Y119.585 E.57528
G1 X95.827 Y119.305 E.01233
G1 X95.827 Y86.46 E1.44046
G1 X95.875 Y85.817 E.02825
G1 X96.017 Y85.197 E.02792
G1 X96.229 Y84.642 E.02607
G1 X96.528 Y84.077 E.02802
G1 X96.881 Y83.597 E.02612
G1 X97.243 Y83.865 F18000
G1 F3000
G1 X97.253 Y83.851 E.00077
G1 X97.656 Y83.45 E.02493
G1 X98.11 Y83.116 E.0247
G1 X98.743 Y82.796 E.03112
G1 X99.382 Y82.59 E.02944
G1 X99.945 Y82.503 E.02498
G1 X116.945 Y82.489 E.74556
G1 X117.541 Y82.536 E.02625
G1 X118.084 Y82.659 E.02438
G1 X118.478 Y82.804 E.01843
G1 X119.094 Y83.119 E.03033
G1 X119.565 Y83.466 E.02567
G1 X119.953 Y83.854 E.02405
G1 X120.288 Y84.304 E.02459
G1 X120.62 Y84.956 E.03211
G1 X120.826 Y85.595 E.02944
G1 X120.914 Y86.175 E.02574
G1 X120.926 Y88.328 E.09442
G1 X120.883 Y88.903 E.02528
G1 X120.758 Y89.46 E.02507
G1 X120.56 Y89.977 E.02425
G1 X120.299 Y90.472 E.02457
G1 X119.963 Y90.931 E.02493
G1 X119.628 Y91.268 E.02085
G1 X119.516 Y91.435 E.0088
G1 X119.461 Y91.569 E.00636
G1 X119.422 Y91.766 E.0088
G1 X119.422 Y128.25 E1.60004
G1 X119.461 Y128.447 E.00882
G1 X119.517 Y128.582 E.00637
G1 X119.629 Y128.749 E.00882
G1 X120.028 Y129.149 E.02478
G1 X120.361 Y129.603 E.0247
G1 X120.681 Y130.236 E.03112
G1 X120.892 Y130.896 E.03038
G1 X120.976 Y131.455 E.0248
G1 X120.988 Y133.52 E.09057
G1 X120.945 Y134.106 E.02575
G1 X120.814 Y134.682 E.0259
G1 X120.622 Y135.18 E.02342
G1 X120.349 Y135.692 E.02545
G1 X120.011 Y136.149 E.02493
G1 X119.608 Y136.55 E.02493
G1 X119.154 Y136.884 E.0247
G1 X118.521 Y137.204 E.03112
G1 X117.882 Y137.41 E.02944
G1 X117.319 Y137.497 E.02498
G1 X100.27 Y137.511 E.74774
G1 X99.683 Y137.467 E.02582
G1 X99.107 Y137.336 E.0259
G1 X98.608 Y137.145 E.02342
G1 X98.096 Y136.872 E.02545
G1 X97.639 Y136.534 E.02493
G1 X97.238 Y136.131 E.02493
G1 X96.905 Y135.677 E.0247
G1 X96.585 Y135.047 E.03098
G1 X96.379 Y134.408 E.02943
G1 X96.29 Y133.828 E.02576
G1 X96.256 Y132.681 E.05031
G1 X96.256 Y119.606 E.57341
G1 X96.276 Y119.3 E.01345
G1 X96.276 Y86.481 E1.43931
G1 X96.319 Y85.894 E.02582
G1 X96.45 Y85.318 E.0259
G1 X96.642 Y84.82 E.02342
G1 X96.915 Y84.308 E.02545
G1 X97.219 Y83.897 E.0224
G1 X97.579 Y84.166 F18000
G1 F3000
G1 X97.601 Y84.138 E.00155
G1 X97.957 Y83.785 E.02198
G1 X98.355 Y83.495 E.02163
G1 X98.905 Y83.217 E.02701
G1 X99.475 Y83.031 E.02632
G1 X99.969 Y82.953 E.02193
G1 X116.933 Y82.938 E.74397
G1 X117.484 Y82.982 E.02423
G1 X117.947 Y83.088 E.02086
G1 X118.29 Y83.213 E.016
G1 X118.847 Y83.497 E.02742
G1 X119.279 Y83.815 E.02351
G1 X119.619 Y84.156 E.02112
G1 X119.898 Y84.532 E.02054
G1 X120.199 Y85.118 E.02891
G1 X120.385 Y85.688 E.02626
G1 X120.466 Y86.22 E.02361
G1 X120.477 Y88.318 E.09201
G1 X120.439 Y88.827 E.02237
G1 X120.329 Y89.321 E.02221
G1 X120.147 Y89.799 E.02242
G1 X119.912 Y90.242 E.02201
G1 X119.627 Y90.631 E.02114
G1 X119.317 Y90.945 E.01935
G1 X119.15 Y91.178 E.01256
G1 X119.019 Y91.493 E.01495
G1 X118.973 Y91.777 E.01263
G1 X118.973 Y128.239 E1.59909
G1 X119.02 Y128.527 E.01279
G1 X119.1 Y128.746 E.01021
G1 X119.251 Y128.99 E.01259
G1 X119.681 Y129.436 E.02716
G1 X119.982 Y129.849 E.02241
G1 X120.268 Y130.417 E.0279
G1 X120.456 Y131.009 E.02722
G1 X120.528 Y131.499 E.02174
G1 X120.539 Y133.5 E.08773
G1 X120.498 Y134.049 E.02416
G1 X120.38 Y134.56 E.02298
G1 X120.209 Y135.001 E.02074
G1 X119.963 Y135.46 E.02287
G1 X119.663 Y135.862 E.02198
G1 X119.307 Y136.215 E.02198
G1 X118.909 Y136.505 E.02163
G1 X118.359 Y136.783 E.02701
G1 X117.789 Y136.969 E.02632
G1 X117.295 Y137.047 E.02193
G1 X100.291 Y137.062 E.74572
G1 X99.739 Y137.02 E.02426
G1 X99.229 Y136.903 E.02299
G1 X98.788 Y136.732 E.02074
G1 X98.328 Y136.486 E.02287
G1 X97.926 Y136.186 E.02198
G1 X97.574 Y135.83 E.02198
G1 X97.283 Y135.432 E.02164
G1 X96.998 Y134.865 E.02779
G1 X96.82 Y134.315 E.02538
G1 X96.737 Y133.779 E.0238
G1 X96.704 Y132.673 E.04853
G1 X96.704 Y119.626 E.57218
G1 X96.724 Y119.296 E.01448
G1 X96.724 Y86.503 E1.43818
G1 X96.766 Y85.951 E.02427
G1 X96.884 Y85.44 E.02299
G1 X97.055 Y84.999 E.02074
G1 X97.301 Y84.54 E.02287
G1 X97.556 Y84.198 E.01868
G1 X97.915 Y84.468 F18000
G1 F3000
G1 X97.947 Y84.426 E.00234
G1 X98.256 Y84.122 E.01902
G1 X98.6 Y83.874 E.01858
G1 X99.067 Y83.637 E.02298
G1 X99.57 Y83.471 E.02322
G1 X99.994 Y83.403 E.01883
G1 X116.921 Y83.387 E.74233
G1 X117.425 Y83.429 E.0222
G1 X117.812 Y83.517 E.01741
G1 X118.103 Y83.622 E.01357
G1 X118.601 Y83.875 E.02449
G1 X118.993 Y84.163 E.02132
G1 X119.271 Y84.442 E.01731
G1 X119.51 Y84.76 E.01742
G1 X119.779 Y85.282 E.02573
G1 X119.944 Y85.781 E.02307
G1 X120.018 Y86.265 E.02146
G1 X120.028 Y88.308 E.08959
G1 X119.995 Y88.751 E.01951
G1 X119.901 Y89.182 E.01935
G1 X119.741 Y89.605 E.01982
G1 X119.525 Y90.011 E.02015
G1 X119.279 Y90.345 E.01821
G1 X118.949 Y90.689 E.02091
G1 X118.732 Y91.016 E.01723
G1 X118.575 Y91.433 E.01952
G1 X118.525 Y91.787 E.01566
G1 X118.525 Y128.228 E1.59818
G1 X118.603 Y128.69 E.02055
G1 X118.724 Y128.99 E.01417
G1 X118.936 Y129.31 E.01686
G1 X119.33 Y129.719 E.02491
G1 X119.604 Y130.093 E.02033
G1 X119.855 Y130.597 E.02467
G1 X120.019 Y131.12 E.02407
G1 X120.079 Y131.543 E.0187
G1 X120.091 Y133.478 E.0849
G1 X120.054 Y133.971 E.02167
G1 X119.947 Y134.437 E.02095
G1 X119.797 Y134.82 E.01807
G1 X119.577 Y135.227 E.02028
G1 X119.317 Y135.574 E.01903
G1 X119.008 Y135.878 E.01902
G1 X118.664 Y136.126 E.01858
G1 X118.197 Y136.363 E.02298
G1 X117.694 Y136.529 E.02322
G1 X117.27 Y136.597 E.01883
G1 X100.313 Y136.614 E.74366
G1 X99.817 Y136.577 E.0218
G1 X99.352 Y136.469 E.02095
G1 X98.968 Y136.32 E.01807
G1 X98.561 Y136.1 E.02028
G1 X98.214 Y135.84 E.01903
G1 X97.91 Y135.53 E.01902
G1 X97.662 Y135.187 E.01857
G1 X97.411 Y134.685 E.02464
G1 X97.256 Y134.2 E.02231
G1 X97.184 Y133.729 E.02089
G1 X97.153 Y132.664 E.04674
G1 X97.153 Y119.644 E.57102
G1 X97.173 Y119.292 E.01544
G1 X97.173 Y86.525 E1.43703
G1 X97.21 Y86.029 E.02182
G1 X97.317 Y85.563 E.02095
G1 X97.467 Y85.18 E.01807
G1 X97.687 Y84.773 E.02028
G1 X97.891 Y84.5 E.01494
G1 X98.25 Y84.772 F18000
G1 F3000
G1 X98.293 Y84.715 E.00314
G1 X98.555 Y84.459 E.01605
G1 X98.843 Y84.253 E.01555
G1 X99.249 Y84.049 E.01992
G1 X99.667 Y83.912 E.01928
G1 X100.02 Y83.853 E.01569
G1 X116.908 Y83.836 E.74065
G1 X117.366 Y83.875 E.02016
G1 X117.678 Y83.947 E.01404
G1 X117.917 Y84.032 E.01114
G1 X118.355 Y84.253 E.02153
G1 X118.707 Y84.511 E.01912
G1 X118.925 Y84.73 E.01355
G1 X119.122 Y84.991 E.01432
G1 X119.359 Y85.446 E.02255
G1 X119.503 Y85.875 E.01983
G1 X119.57 Y86.31 E.01929
G1 X119.579 Y88.297 E.08715
G1 X119.551 Y88.677 E.01668
G1 X119.472 Y89.045 E.01651
G1 X119.328 Y89.427 E.01792
G1 X119.139 Y89.779 E.0175
G1 X118.93 Y90.06 E.01535
G1 X118.571 Y90.449 E.02323
G1 X118.308 Y90.87 E.02177
G1 X118.129 Y91.382 E.0238
G1 X118.076 Y91.795 E.01826
G1 X118.076 Y128.218 E1.59735
G1 X118.159 Y128.753 E.02375
G1 X118.305 Y129.148 E.01848
G1 X118.558 Y129.55 E.02081
G1 X118.981 Y130.003 E.0272
G1 X119.212 Y130.318 E.01714
G1 X119.433 Y130.755 E.02147
G1 X119.577 Y131.21 E.02089
G1 X119.631 Y131.585 E.01664
G1 X119.642 Y133.457 E.08212
G1 X119.61 Y133.893 E.01917
G1 X119.513 Y134.313 E.01889
G1 X119.385 Y134.639 E.01535
G1 X119.193 Y134.993 E.01767
G1 X118.971 Y135.285 E.01608
G1 X118.709 Y135.541 E.01605
G1 X118.421 Y135.747 E.01555
G1 X118.015 Y135.951 E.01992
G1 X117.597 Y136.088 E.01928
G1 X117.244 Y136.147 E.01569
G1 X100.335 Y136.165 E.74158
G1 X99.895 Y136.133 E.01935
G1 X99.475 Y136.036 E.0189
G1 X99.149 Y135.908 E.01535
G1 X98.795 Y135.715 E.01767
G1 X98.503 Y135.494 E.01608
G1 X98.248 Y135.232 E.01605
G1 X98.042 Y134.944 E.0155
G1 X97.824 Y134.505 E.0215
G1 X97.692 Y134.087 E.01925
G1 X97.631 Y133.68 E.01802
G1 X97.601 Y132.655 E.04498
G1 X97.601 Y119.66 E.5699
G1 X97.621 Y119.288 E.01634
G1 X97.621 Y86.547 E1.43591
G1 X97.654 Y86.107 E.01937
G1 X97.751 Y85.687 E.0189
G1 X97.879 Y85.361 E.01535
G1 X98.071 Y85.007 E.01767
G1 X98.226 Y84.804 E.01119
G1 X98.593 Y85.089 F18000
G1 F3000
G1 X98.687 Y84.968 E.00671
G1 X99.006 Y84.694 E.01847
G1 X99.318 Y84.511 E.01585
G1 X99.706 Y84.374 E.01805
G1 X100.185 Y84.291 E.02129
G1 X117.091 Y84.295 E.74144
G1 X117.382 Y84.341 E.01295
G1 X117.66 Y84.419 E.01264
G1 X118.152 Y84.67 E.02423
G1 X118.3 Y84.771 E.00785
G1 X118.511 Y84.961 E.01246
G1 X118.691 Y85.173 E.01221
G1 X118.892 Y85.505 E.01701
G1 X119.007 Y85.778 E.01299
G1 X119.133 Y86.497 E.03204
G1 X119.133 Y88.311 E.07954
G1 X119.096 Y88.657 E.01525
G1 X118.996 Y89.041 E.01743
G1 X118.694 Y89.611 E.02829
G1 X118.504 Y89.844 E.01315
G1 X118.208 Y90.094 E.01699
G1 X117.894 Y90.28 E.01602
G1 X117.713 Y90.352 E.00854
G1 X117.628 Y90.477 E.00663
G1 X117.628 Y129.573 E1.71458
G1 X117.702 Y129.693 E.00619
G1 X118.216 Y129.951 E.02521
G1 X118.425 Y130.1 E.01126
G1 X118.71 Y130.402 E.01823
G1 X118.963 Y130.808 E.02096
G1 X119.116 Y131.236 E.01993
G1 X119.187 Y131.681 E.01978
G1 X119.194 Y133.505 E.07999
G1 X119.101 Y134.094 E.02614
G1 X119.066 Y134.209 E.00527
G1 X118.849 Y134.669 E.02232
G1 X118.585 Y135.02 E.01926
G1 X118.496 Y135.113 E.00564
G1 X118.162 Y135.37 E.01847
G1 X117.968 Y135.479 E.00976
G1 X117.7 Y135.591 E.01277
G1 X116.98 Y135.717 E.03205
G1 X100.209 Y135.713 E.73551
G1 X99.842 Y135.664 E.01623
G1 X99.555 Y135.583 E.01306
G1 X99.052 Y135.33 E.0247
G1 X98.905 Y135.23 E.00783
G1 X98.693 Y135.04 E.01245
G1 X98.513 Y134.828 E.0122
G1 X98.313 Y134.496 E.01699
G1 X98.197 Y134.222 E.01306
G1 X98.078 Y133.6 E.02775
G1 X98.05 Y132.688 E.04002
G1 X98.05 Y119.602 E.5739
G1 X98.07 Y119.326 E.01216
G1 X98.07 Y86.487 E1.44019
G1 X98.123 Y86.055 E.01909
G1 X98.249 Y85.653 E.01847
G1 X98.454 Y85.268 E.01915
G1 X98.568 Y85.12 E.00817
G1 X98.91 Y85.402 F18000
G1 F3000
G1 X99.039 Y85.245 E.00889
G1 X99.296 Y85.037 E.0145
G1 X99.545 Y84.898 E.0125
G1 X99.771 Y84.818 E.01054
G1 X100.272 Y84.731 E.0223
G1 X117.011 Y84.737 E.7341
G1 X117.321 Y84.785 E.01377
G1 X117.54 Y84.851 E.01001
G1 X117.947 Y85.068 E.02026
G1 X118.039 Y85.135 E.00498
G1 X118.213 Y85.296 E.01038
G1 X118.349 Y85.462 E.00942
G1 X118.508 Y85.737 E.01393
G1 X118.596 Y85.956 E.01033
G1 X118.684 Y86.486 E.02357
G1 X118.684 Y88.318 E.08036
G1 X118.65 Y88.614 E.01305
G1 X118.562 Y88.927 E.01429
G1 X118.297 Y89.403 E.02388
G1 X118.164 Y89.552 E.00873
G1 X117.988 Y89.702 E.01016
G1 X117.656 Y89.9 E.01698
G1 X117.284 Y90.013 E.01704
G1 X117.195 Y90.083 E.00497
G1 X117.179 Y90.145 E.00279
G1 X117.179 Y129.915 E1.74416
G1 X117.227 Y130.017 E.00497
G1 X117.279 Y130.045 E.00256
G1 X117.603 Y130.132 E.01472
G1 X118.011 Y130.35 E.0203
G1 X118.162 Y130.464 E.00829
G1 X118.384 Y130.71 E.01456
G1 X118.541 Y130.961 E.01298
G1 X118.671 Y131.294 E.01565
G1 X118.746 Y131.762 E.02079
G1 X118.746 Y133.516 E.07691
G1 X118.658 Y134.024 E.02264
G1 X118.499 Y134.389 E.01744
G1 X118.222 Y134.758 E.02024
G1 X117.95 Y134.974 E.01522
G1 X117.741 Y135.092 E.01053
G1 X117.522 Y135.18 E.01038
G1 X116.991 Y135.269 E.02357
G1 X100.267 Y135.269 E.73346
G1 X99.972 Y135.234 E.01305
G1 X99.663 Y135.148 E.01404
G1 X99.257 Y134.932 E.02017
G1 X99.166 Y134.865 E.00498
G1 X98.992 Y134.705 E.01037
G1 X98.856 Y134.538 E.00941
G1 X98.696 Y134.264 E.01391
G1 X98.609 Y134.045 E.01037
G1 X98.527 Y133.608 E.01949
G1 X98.519 Y132.94 E.0293
G1 X98.498 Y132.691 E.01097
G1 X98.498 Y119.597 E.57422
G1 X98.518 Y119.35 E.01089
G1 X98.518 Y86.479 E1.4416
G1 X98.553 Y86.183 E.01304
G1 X98.639 Y85.875 E.01404
G1 X98.855 Y85.468 E.0202
G1 X98.885 Y85.432 E.00204
G1 X99.249 Y85.683 F18000
G1 F3000
G1 X99.323 Y85.592 E.00513
G1 X99.515 Y85.428 E.01107
G1 X99.704 Y85.317 E.00961
G1 X99.848 Y85.26 E.0068
G1 X100.261 Y85.18 E.01844
G1 X116.945 Y85.18 E.7317
G1 X117.182 Y85.211 E.01048
G1 X117.422 Y85.284 E.01099
G1 X117.73 Y85.46 E.01555
G1 X117.916 Y85.632 E.01113
G1 X117.992 Y85.734 E.00555
G1 X118.122 Y85.964 E.01158
G1 X118.178 Y86.119 E.00725
G1 X118.236 Y86.475 E.01579
G1 X118.236 Y88.326 E.08119
G1 X118.204 Y88.563 E.01048
G1 X118.132 Y88.803 E.01099
G1 X117.954 Y89.114 E.01573
G1 X117.88 Y89.205 E.00513
G1 X117.688 Y89.369 E.01107
G1 X117.499 Y89.48 E.00961
G1 X117.353 Y89.538 E.0069
G1 X117.065 Y89.603 E.01295
G1 X116.857 Y89.617 E.00915
G1 X116.757 Y89.672 E.00497
G1 X116.731 Y89.752 E.00369
G1 X116.731 Y130.326 E1.77942
G1 X116.779 Y130.428 E.00497
G1 X116.861 Y130.46 E.00388
G1 X117.241 Y130.491 E.01672
G1 X117.483 Y130.564 E.01108
G1 X117.795 Y130.743 E.01573
G1 X117.885 Y130.816 E.00513
G1 X118.049 Y131.008 E.01107
G1 X118.159 Y131.195 E.00952
G1 X118.254 Y131.457 E.01218
G1 X118.297 Y131.751 E.01306
G1 X118.297 Y133.527 E.07788
G1 X118.245 Y133.85 E.01435
G1 X118.138 Y134.122 E.01283
G1 X117.937 Y134.411 E.01542
G1 X117.74 Y134.578 E.01135
G1 X117.513 Y134.706 E.0114
G1 X117.358 Y134.762 E.00725
G1 X117.003 Y134.82 E.01579
G1 X100.259 Y134.82 E.73429
G1 X100.022 Y134.789 E.01048
